!!!!SEGMENT: pl-wtm--a-30-166-77_piotrowski-aleksander--murzynska-banda-gra-lsni-lamp-dlugi-sznur.krn
!!!cenid: 19xx:49
!!!COM: Piotrowski, Aleksander
!!!COM-rismID: pe50047948
!!!CDT: 1870-1938
!!!CNT: Russian
!!!OTL: Murzyńska banda gra/Lśni lamp długi sznur
!!!PDT:
!!!AGN: Secular
!!!YEC: Copyright 2022 Narodowy Instytut Fryderyka Chopina (https://polishscores.org)
!!!YEM: License CC-BY-4.0 (https://creativecommons.org/licenses/by/4.0)
!!!SMS-siglum: PL-Wtm
!!!SMS-shelfmark: A.30.166/77
!!!SMS-variant:
!!!SMS-altvar:
!!!SMS-shelfwork: W
!!!NIFC-rismSourceID: 1001219438
!!!NIFC-rismChildID: 1001219438
!!!NIFC-islandoraID: pl-wtm:95561
!!!URL-pdf-islandora: https://repozytorium.nifc.pl/islandora/object/pl-wtm%3A95561/datastream/PDF/view
!!!URL-scan: https://polish.musicsources.pl/pl/lokalizacje/galeria/druki-muzyczne/20594/2 @EN{Scan on Polish Music Sources Website} @PL{Skany w portalu Dziedzictwo Muzyki Polskiej w otwartym dostępie}
!!!IIIF:
!!!ONB-nifc:
!!!AIN: 2 piano
!!!key: D
**kern	**kern	**text	**text	**dynam
*part2	*part1	*part1	*part1	*part1
*staff2	*staff1	*staff1	*staff1	*
*I"[Piano]	*I"[Piano]	*	*	*
*I'[pf]	*I'[pf]	*	*	*
*ICklav	*ICklav	*	*	*
*Ipiano	*Ipiano	*	*	*
*>[A,A1,A,A2,A,A1,A,A2,B]	*>[A,A1,A,A2,A,A1,A,A2,B]	*>[A,A1,A,A2,A,A1,A,A2,B]	*>[A,A1,A,A2,A,A1,A,A2,B]	*>[A,A1,A,A2,A,A1,A,A2,B]
*>A	*>A	*>A	*>A	*>A
*clefF4	*clefG2	*	*	*
*k[f#c#]	*k[f#c#]	*	*	*
*D:	*D:	*	*	*
*M2/4	*M2/4	*	*	*
=1	=1	=1	=1	=1
*	*	*above	*above	*
!	!LO:TX:a:B:t=Allegro.	!	!	!LO:DY:b
8DD\L 8D	8r	.	.	ff
8F#\J 8A	8ff#\L 8fff#	.	.	.
8AA\L	8ff#\ 8fff#	.	.	.
8F#\J 8A	8ee\J 8eee	.	.	.
=2	=2	=2	=2	=2
8DD\L 8D	8ee\L 8ff# 8aa 8eee	.	.	.
8F#\J 8A	8dd\J 8ddd	.	.	.
8AA\L	4dd^^\ 4ff# 4aa 4ddd	.	.	.
8F#\J 8A	.	.	.	.
=3	=3	=3	=3	=3
8BBB-X\L 8BB-X	8r	.	.	.
8B-X\J 8d	8dd\L 8ddd	.	.	.
8Fn\L	8dd\ 8ddd	.	.	.
8B-\J 8d	8ccn\J 8cccn	.	.	.
=4	=4	=4	=4	=4
8BBB-X\L 8BB-X	8ccn\L 8dd 8ffn 8cccn	.	.	.
8B-X\J 8d	8b-X\J 8bb-X	.	.	.
8Fn\L	4b-^^\ 4dd 4ff 4bb-	.	.	.
8B-\J 8d	.	.	.	.
=5	=5	=5	=5	=5
!	!	!	!	!LO:DY:b
.	16qqB-X/LL	.	.	fz
.	16qqcn/	.	.	.
.	16qqd/JJ	.	.	.
8EE-X^^\L 8E-X	8e-X^/L	.	.	.
8FFn\ 8Fn	8fn/	.	.	.
8GG\ 8G	8g/	.	.	.
8BB-X\J 8B-X	8b-X/J	.	.	.
=6	=6	=6	=6	=6
!	!	!	!	!LO:HP:b
8AA\L 8A	8a\L	.	.	<
8D\ 8d	8dd\	.	.	.
8En\ 8en	8een\	.	.	.
8F#X\J 8f#X	8ff#X\J	.	.	[[
!!LO:LB:g=original	!	!	!	!
=7	=7	=7	=7	=7
8BBB/ 8BB	8r	.	.	.
!	!	!	!	!LO:DY:b
4E^^\ 4G#X 4d	4f#^^\ 4g#X 4dd 4ff#	.	.	fz
8AAA/ 8AA	8e\ 8gn 8cc# 8ee	.	.	.
=8	=8	=8	=8	=8
8DD/L 8D	8d/L 8f# 8a 8dd	.	.	.
8AAA^/ 8AA	8A^/	.	.	.
8DD^/J 8D	8d^/J	.	.	.
8r	8r	.	.	.
=9!|:	=9!|:	=9!|:	=9!|:	=9!|:
!	!	!	!	!
!	!LO:TX:a:B:t=Molto meno mosso.	!	!	!LO:DY:b
8DD/L 8D	8r	.	.	p
8r	8F#/ 8A 8d	.	.	.
8BBB-X/J 8BB-X	8r	.	.	.
!	!	!	!	!LO:HP:b
8r	8Fn/ 8B-X 8d	.	.	<
=10	=10	=10	=10	=10
!LO:TX:a:i:t=molto	!	!	!	!
8BBBn/ 8BBn	8r	.	.	.
8r	8G#X/ 8d 8f#X	.	.	[
!	!	!	!	!LO:HP:b
4AAA^/ 4AA	4Gn^/ 4A 4c# 4e	.	.	>
=11	=11	=11	=11	=11
!	!LO:TX:a:i:t=ad libitum	!	!	!
8DD/L 8D	8r	.	.	.
8r	8F#/ 8A 8d	.	.	]
8BBB-X/J 8BB-X	8r	.	.	.
!	!	!	!	!LO:HP:b
8r	8Fn/ 8B-X 8d	.	.	<
=12	=12	=12	=12	=12
!LO:TX:a:i:t=molto	!	!	!	!
8BBBn/ 8BBn	8r	.	.	.
8r	8G#X/ 8d 8f#	.	.	[
!	!	!	!	!LO:HP:b
4AAA/ 4AA	4Gn^/ 4A 4c# 4e	.	.	>]
=13	=13	=13	=13	=13
!	!	!	!	!LO:DY:b
8DD/ 8D	8r	.	.	mf
4D^^\ 4F#	4A^/ 4d 4f# 4a	ona:1. Lśni	2.Świt	.
8AAA/ 8AA	8B/ 8b	lamp	już...	.
=14	=14	=14	=14	=14
8DD\L 8D	8d/L 8f# 8cc#	dłu-	Bla-	.
8F#\J 8A	8B/ 8d 8f# 8b	-gi	-dy	.
8AA\L	8d/ 8f# 8a	sznur,	dzień	.
8F#\J 8A	8d/J 8f#	Lśnią	Roz-	.
!!LO:LB:g=original	!	!	!	!
=15	=15	=15	=15	=15
!	!	!	!	!LO:HP:b
8E\L	(>8c#/L 8g	gor-	-pra-	<
8G\J 8A	8c#/ 8a	-sy	-sza	.
8AA\L	8c#/ 8f#	po-	zwol-	.
8G\J 8A	8c#/J 8e	-śród	-na	[[
=16	=16	=16	=16	=16
!	!	!	!	!LO:HP:b
8DD\L 8D	8f#/L	dy-	no-	>
8F#\J 8A	8e/J	-mu	-cy	.
8AA\L	4d/)	chmur,	cień,	]]
8F#\J 8A	.	.	.	.
=17	=17	=17	=17	=17
*^	*^	*	*	*
!	!	!	!	!	!	!LO:DY:b
4AA/	2AAA\	(4E/ 4e	8r	Błysz-	Lecz	p
.	.	.	8G\ 8c#	.	.	.
4AA/	.	4F#/ 4f#	8r	-czą,	tan-	.
!	!	!	!LO:TX:b:Bi:t=crescendo_ :problem:dynamics with line extensions	!	!	!LO:HP:b
.	.	.	8G\ 8c#	.	.	<
=18	=18	=18	=18	=18	=18	=18
8AA/L	2DD\	8D/L 8d	8r	tu	-czą-	.
8AA/	.	8E/ 8e	8F#\ 8A	i	-ca	.
8AAA/	.	8F#/ 8f#	4r	tam	brać	.
8AA/J	.	8F#/J) 8f#	.	Bry-	Nie	.
=19	=19	=19	=19	=19	=19	=19
8EE/L	2EE\	8G/L 8g	8c#\	-lan-	my-	.
8AA/J	.	8G/ 8g	4.c#\	-ty	-śli	.
8AAA/L	.	8F#/ 8f#	.	pięk-	jesz-	.
8AA/J	.	8E/J 8e	.	-nych	-cze	[[
=20	=20	=20	=20	=20	=20	=20
8DD/	2DD\	2A/ 2a	8r	dam!..	spać!..	.
4AA/	.	.	4d\ 4f#	.	.	.
!	!	!	!	!	!	!LO:HP:b
8AA/	.	.	8d\ 8f#	.	.	<
*v	*v	*	*	*	*	*
*	*v	*v	*	*	*
=21	=21	=21	=21	=21
8FFn/	8r	.	.	.
!	!	!	!	!LO:DY:b
4Cn^^\ 4Fn 4A	4cn^/ 4fn 4a 4ccn	On(Ru-	(Negr	[ fz
8CCn/ 8C	8d/ 8dd	-de,	gra,	.
!!LO:LB:g=original	!	!	!	!
=22	=22	=22	=22	=22
8FFn/L	8e/L 8a 8ee	czar-	pa-	.
8Cn/J	8d/ 8a 8dd	-ne,	-ry	.
8CCn/L	8cn/ 8fn 8a 8ccn	blond	mkną,	.
8C/J	8c/J 8f 8a	Ob-	Choć	.
=23	=23	=23	=23	=23
!	!	!	!	!LO:HP:b
8GG\L	(>8e/L 8b-X	-siad-	li-	<
8E\J 8B-X	8e/ 8ccn	-ły	-ca	.
8Cn\L	8e/ 8a	w krąg	zblad-	.
8E\J 8B-	8e/J 8g	sto-	-ły,	[[
=24	=24	=24	=24	=24
!	!	!	!	!LO:HP:b
8FFn/L	8A/L 8a	-li-	o-	>
8Cn/J	8G/J 8g	-ków	-czy	.
8CCn/L	4Fn/) 4fn	rząd	lśnią,	]]
8C/J	.	.	.	.
=25	=25	=25	=25	=25
*^	*^	*	*	*
!	!	!	!LO:TX:b:Bi:t=cresc._ :problem:dynamics with line extensions	!	!	!LO:HP:b
4AA/	2AAA\	(4E/ 4e	8r	Są-	No-	<
.	.	.	8G\ 8c#X	.	.	.
4AA/	.	4G/ 4g	8r	-czą	-gi	.
.	.	.	8A\ 8c#	.	.	.
*v	*v	*	*	*	*	*
=26	=26	=26	=26	=26	=26
4DD/ 4D	8F#/L 8f#	8r	cock-	masz	.
.	8F#/J 8f#	8A\ 8d	-tail,	jak	.
4DD#X/ 4D#X	4A/) 4a	8r	jin	głaz	.
.	.	8cn\ 8f#	.	.	[[
*	*v	*v	*	*	*
=27	=27	=27	=27	=27
*^	*	*	*	*
8E/L	4.EE\	8A/L 8c# 8e	I	Lecz	.
8E/J	.	8cn/J 8d#X 8f#	kie-	tańcz	.
8BB/L	.	8A/L 8B 8dn 8f#	-li-	jesz-	.
!LO:TX:t=P:problem: bracketed notes	!	!	!	!	!
8G#X/J	8EE\	8d/J 8e 8g#X 8b	-chy	-cze	.
*v	*v	*	*	*	*
=28	=28	=28	=28	=28
!	!	!	!	!LO:HP:b
8AA/L 8A	4.c#X/ 4.e 4.a	win!..	raz!	>
8E/	.	.	.	.
8AA/J	.	.	.	.
8r	8a/	Ona1.2.(O	.	]]
!!LO:LB:g=original	!	!	!	!
=29	=29	=29	=29	=29
*	*^	*	*	*
!	!	!	!	!	!LO:DY:b
8A'\L 8g	4a/	16a\LL 16cc# 16ee	tak!	.	p
.	.	16aa\	.	.	.
8A'\ 8g	.	16a\ 16cc# 16ee	.	.	.
.	.	16aa\JJ	.	.	.
8A'\J 8g	8a\ 8cc# 8ee	8ryy	.	.	.
8r	8a/	8r	O	.	.
=30	=30	=30	=30	=30	=30
!	!	!LO:TX:b:Bi:t=cresc._ :problem:dynamics with line extensions	!	!	!LO:HP:b
8A'\L 8f#	4a/	16a\LL 16ccn 16ffn	tak!	.	<
.	.	16aa\	.	.	.
8A'\ 8f#	.	16a\ 16cc 16ff	.	.	.
.	.	16aa\JJ	.	.	.
8A'\J 8f#	8a\ 8cc 8ff	8ryy	.	.	.
8r	8a/	8r	W tem	.	.
*	*v	*v	*	*	*
=31	=31	=31	=31	=31
8AA\L 8G	8A/L 8c#X 8g	właś-	.	[
8D\J	8A/J 8d 8fn	-nie	.	.
8BB/L	8E/L 8G#X 8e	ca-	.	.
8BB-X/J 8D	8E/J 8G# 8d	-ły	.	.
=32	=32	=32	=32	=32
*tremolo	*	*	*	*
32AAA;/LLL	4.A;/ 4.c# 4.e 4.a	smak!	.	.
32AA/	.	.	.	.
32AAA/	.	.	.	.
32AA/	.	.	.	.
32AAA/	.	.	.	.
32AA/	.	.	.	.
32AAA/	.	.	.	.
32AA/	.	.	.	.
32AAA/	.	.	.	.
32AA/	.	.	.	.
32AAA/	.	.	.	.
32AA/JJJ	.	.	.	.
16AA'/	8r	.	.	.
16r	.	.	.	.
=33	=33	=33	=33	=33
!	!	!	!	!
!	!LO:TX:a:B:t=Tempo di Ore-step.	!	!	!LO:DY:b
8D\L	8r	.	.	p
8F#\J 8A	8d/L	Mu-	.	.
8AA\L	8e/	-rzyń-	.	.
8F#\J 8A	8f#/J	-ska	.	.
=34!|:	=34!|:	=34!|:	=34!|:	=34!|:
!	!	!	!	!LO:HP:b
8D\L	8a/L	ban-	.	<
8F#\J 8A	8b/J	-da	.	.
8AA^^\L	4d^/ 4f# 4a	gra	.	[[
8F#\J 8A	.	.	.	.
=35	=35	=35	=35	=35
8D\L	8r	.	.	.
8F#\J 8A	8d/L	I	.	.
8AA\L	8e/	śmie-	.	.
8F#\J 8A	8f#/J	-je	.	.
!!LO:LB:g=original	!	!	!	!
=36	=36	=36	=36	=36
!	!	!	!	!LO:HP:b
8D\L	8a/L	się	.	<
8F#\J 8A	8b/J	ha	.	.
8AA^^\L	4d^/ 4f# 4a	ha!	.	[[
8F#\J 8A	.	.	.	.
=37	=37	=37	=37	=37
8D\L	8r	.	.	.
8F#\J 8A	8d/L	Ktoś	.	.
8AA\L	8e/	i-	.	.
8F#\J 8A	8f#/J	-dzie	.	.
=38	=38	=38	=38	=38
!	!	!	!	!LO:HP:b
8D\L	8a/L	w skocz-	.	<
8F#\J 8A	8cc#/	-ne	.	.
8AA\L	8b/	ta-	.	.
8F#^^\J 8A	8d^/J 8f#	-ny,	.	[[
=39	=39	=39	=39	=39
8D\L	8a/L	Ktoś	.	.
8F#\J 8A	8cc#/	pi-	.	.
8AA\L	8b/	-ja-	.	.
8F#^^\J 8A	8d^/J 8f#	-ny	.	.
=40	=40	=40	=40	=40
*	*^	*	*	*
8D\L	8a/L	8r	Tłu-	.	.
8F#\J 8A	8cc#/J	8d\ 8f#	-cze	.	.
8AA^^\L	[4b/	4d\ 4f#	szkła!	.	.
8F#\J 8A	.	.	.	.	.
=41	=41	=41	=41	=41	=41
*^	*	*	*	*	*
!	!	!	!	!	!	!LO:HP:b
8BB\L	2BB/	8b/L]	8r	.	.	<
8F#\J 8A	.	8a/	4.B\ 4.d#X	Krzyk,	.	.
8D#X\L	.	8g/	.	rwe-	.	.
8F#\J 8A	.	8f#/J	.	-tes,	.	[[
=42	=42	=42	=42	=42	=42	=42
!	!	!	!	!	!	!LO:HP:b
8EE\L	4ryy	8g/L	8r	szu-	.	<
8E\J 8G	.	8b/J	8B\ 8e 8g	-mi	.	.
8BB\L	4BB^^>/	4b^^/	8r	gwar,	.	.
8E\J 8G	.	.	8B\ 8e 8g	.	.	[[
*v	*v	*	*	*	*	*
*	*v	*v	*	*	*
=43	=43	=43	=43	=43
8FF#\L	8r	.	.	.
8D#X\J 8A	8aM</L	Wi-	.	.
8BB\L	8g/	-ru-	.	.
8D#\J 8A	8f#/J	-je	.	.
!!LO:PB:g=original	!	!	!	!
=44	=44	=44	=44	=44
*	*^	*	*	*
!	!	!	!	!	!LO:HP:b
8EE\L	8g/L	8r	ca-	.	<
8E\J 8G	8b/J	8e\ 8g	-ły	.	.
8BB^^\L	4b^^/	8r	bar,	.	.
8E\J 8G	.	8B\ 8e 8g	.	.	[[
*	*v	*v	*	*	*
=45	=45	=45	=45	=45
8BBB\L	8r	.	.	.
8D#X\J 8A	8aM</L	Szy-	.	.
8BB\L	8g/	-kow-	.	.
!	!LO:TX:b:Bi:t=poco cresc._ :problem:dynamics with line extensions	!	!	!LO:HP:b
8D#\J 8A	8f#/J	-cy	.	<
=46	=46	=46	=46	=46
8EE\L	8g/L	peł-	.	.
8E\J 8G	8b/	-ni	.	.
8BB\L	8a/	we-	.	.
8F#^^\J 8A	8B^/J 8d#X 8f#	-ny,	.	.
=47	=47	=47	=47	=47
8EE\L	8g/L	D'mi-	.	.
8E\J 8G	8b/	-mon-	.	.
8BB\L	8a/	-dain	.	.
8F#^^\J 8A	8B^/J 8d#X 8f#	y,	.	.
=48	=48	=48	=48	=48
8EE\L	8g/L	Set-	.	.
8E\J 8G	8b/J	-ki	.	.
8BB^^\L	4B^/ 4e 4g 4b	par!	.	[[
8E\J 8G	.	.	.	.
=49	=49	=49	=49	=49
!	!	!	!	!LO:HP:b
8EE\L	8r	.	.	<
8E\J 8G	(>8b/L	Mię-	.	.
8BB\L	8a#X/	-dzy	.	.
8E\J 8G	8b/J	sto-	.	[[
=50	=50	=50	=50	=50
*	*^	*	*	*
!	!	!LO:TX:b:Bi:t=crescendo sempre più_ :problem:dynamics with line extensions	!	!	!LO:HP:b
4EE/ 4E	4e/ 4ee	8r	-li-	.	<
.	.	8g#X\ 8b	.	.	.
4GG#X/ 4G#X	4d/ 4dd	8r	-ki	.	.
.	.	8e\ 8g#	.	.	.
=51	=51	=51	=51	=51	=51
4EE/ 4E	4c#/ 4cc#	8ryy	snu-	.	.
.	.	8d\ 8g#X	.	.	.
4EE/ 4E	4B/ 4b	8r	-je	.	.
.	.	8d\ 8g#	.	.	.
*	*v	*v	*	*	*
!!LO:LB:g=original	!	!	!	!
=52	=52	=52	=52	=52
8AAA\L 8AA	8c#/L) 8cc#	żmi-	.	.
8A\J 8c#	8e/J 8ee	-ja	.	.
8E\L	4e^/ 4a 4cc# 4ee	ciał,	.	.
8A\J 8c#	.	.	.	.
=53	=53	=53	=53	=53
8AAA\L 8AA	8r	.	.	.
8A\J 8c#	(>8c#/L 8cc#	O-	.	.
8E\L	8d/ 8dd	-pę-	.	.
8A\J 8c#	8e/J 8ee	-tał	.	.
=54	=54	=54	=54	=54
*	*^	*	*	*
4FFF#/ 4FF#	4f#/ 4ff#	8r	wszys-	.	.
.	.	8a#X\ 8cc#	.	.	.
4AAA#X/ 4AA#X	4e/) 4ee	8r	-tkich	.	.
.	.	8a#\ 8cc#	.	.	[[
=55	=55	=55	=55	=55	=55
4FF#/ 4F#	(4d/ 4dd	8r	tań-	.	.
.	.	8e\ 8a#X	.	.	.
4AA#X\ 4A#X	4c#/ 4cc#	8r	-ca	.	.
.	.	8e\ 8a#	.	.	.
*	*v	*v	*	*	*
=56	=56	=56	=56	=56
!	!	!	!	!LO:HP:b
8BBB\L 8BB	8d\L 8dd	wrzą-	.	<
8B\J 8d	8f#\J 8ff#	-cy	.	.
8F#\L	4f#^^\) 4b 4dd 4ff#	szał,	.	[[
8B\J 8d	.	.	.	.
=57	=57	=57	=57	=57
*>A1	*>A1	*>A1	*>A1	*>A1
!	!	!	!	!LO:DY:b
8BB\L	8r	.	.	p
!	!LO:TX:b:i:t=sub.	!	!	!
8B\J 8d	(8b\L	Splą-	.	.
8F#\L	8cc#\	-ta-	.	.
8B\J 8d	8dd\J)	-ją	.	.
=58	=58	=58	=58	=58
8BB\L	8g#X\L 8dd 8ee	się	.	.
8G#X\J 8d	8g#\ 8dd 8ff#	ra-	.	.
8E\L	8g#\ 8dd 8ee	-mio-	.	.
8G#\J 8d	8g#^^\J 8b	-na,	.	.
!!LO:LB:g=original	!	!	!	!
=59	=59	=59	=59	=59
8BB\L	8g#X\L 8dd 8ee	Na-	.	.
8G#X\J 8d	8g#\ 8dd 8ff#	-gie	.	.
8E\L	8g#\ 8dd 8ee	ło-	.	.
8G#\J 8d	8g#^^\J 8b	-na	.	.
=60	=60	=60	=60	=60
8BB\L	8g#X\L 8dd 8ee	Chło-	.	.
8G#X\J 8d	8g#\J 8dd 8ff#	-ną	.	.
8E\L	([4g#^^\ [4dd [4ee	czar	.	.
8G#\J 8d	.	.	.	.
=61	=61	=61	=61	=61
*	*^	*	*	*
8EE\L	8g#X\L] 8dd] 8ee]	8ryy	.	.	.
8G#X\J 8d	8dd\	4.e/ 4.g#	I	.	.
8E\L	8cc#\	.	tan	.	.
8G#\J 8d	8b\J)	.	o-	.	.
*	*v	*v	*	*	*
=62	=62	=62	=62	=62
!	!LO:TX:b:Bi:t=cresc. molto_ :problem:dynamics with line extensions	!	!	!LO:HP:b
4AAA/ 4AA	8e/ 8gn 8cc#	-pę-	.	<
.	4e^/ 4g 4cc# 4ee	-tań-	.	.
4AA^^\ 4A	.	.	.	.
.	8e/ 8g 8cc#	-czy	.	.
=63	=63	=63	=63	=63
4BBB/ 4BB	8e/ 8g 8b	Bar	.	.
.	4e^/ 4g 4b 4ee	tań-	.	.
4BB^^\ 4B	.	.	.	.
.	8e/ 8g 8b	-czy	.	.
=64	=64	=64	=64	=64
4CCn/ 4Cn	8e/ 8g 8b-X	Za-	.	.
.	4e^/ 4g 4b- 4ee	-lot-	.	.
4C^^\ 4cn	.	.	.	.
.	8e/ 8g 8b-	-nie,	.	.
=65	=65	=65	=65	=65
4CC#X/ 4C#X	8e/ 8g 8a	za-	.	.
.	4e^/ 4g 4a 4ee	-wrot-	.	.
4AA^\ 4A	.	.	.	.
.	8e/ 8g 8a	-nie	.	[[
=66	=66	=66	=66	=66
!	!LO:TX:a:t=RAZEM&colon;	!	!	!
8D\L	8r	.	.	.
8F#\J 8A	8d/L	Mu-	.	.
8AA\L	8e/	-rzyń-	.	.
8F#\J 8A	8f#/J	-ska	.	.
!!LO:LB:g=original	!	!	!	!
=67:|!	=67:|!	=67:|!	=67:|!	=67:|!
*	*^	*	*	*
*>A2	*>A2	*>A2	*>A2	*>A2	*>A2
!	!	!	!	!	!LO:DY:b
8GG#X\L	8r	8ryy	.	.	mf
8G#X\J 8B 8d	(8b/L	4.f#\ 4.g#X	2. Splą-	.	.
8Fn\L	8cc#/	.	-ta-	.	.
8G#\J 8B 8d	8dd/J)	.	-ją	.	.
*	*v	*v	*	*	*
=68	=68	=68	=68	=68
!	!LO:TX:b:Bi:t=cresc. molto_ :problem:dynamics with line extensions	!	!	!LO:HP:b
8AA\L	8d/L 8f# 8a	się	.	<
8D\J 8F#	8d/ 8f# 8cc#	ra-	.	.
8AA\L	8d/ 8f# 8b	-mio-	.	.
8A^^\J	8d^/J 8f#	-na,	.	.
=69	=69	=69	=69	=69
8AA\L	8d/L 8f# 8a	Na-	.	.
8D\J 8F#	8d/ 8f# 8cc#	-gie	.	.
8AA\L	8d/ 8f# 8b	ło-	.	.
8A^^\J	8d^/J 8f#	-na	.	.
=70	=70	=70	=70	=70
8AA\L	8d/L 8f# 8a	I	.	.
8D\J 8F#	8d/ 8f# 8cc#	za-	.	.
8AA\L	8d/ 8f# 8b	-lot-	.	.
8A^^\J	8d^/J 8f#	-nie,	.	.
=71	=71	=71	=71	=71
8AA\L	8d/L 8f# 8a	i	.	.
8D\J 8F#	8d/ 8f# 8cc#	za-	.	.
8AA\L	8d/ 8f# 8b	-wrot-	.	.
8A^^\J	8d^/J 8f#	-nie	.	[[
=72	=72	=72	=72	=72
!	!LO:TX:b:i:t=sub.	!	!	!
!	!	!	!	!LO:DY:b
8BBB/ 8BB	8G#X/ 8d 8f#	Chło-	.	p
4BBB^/ 4BB	4G#^/ 4d 4f#	-ną	.	.
8BBB-X/ 8BB-X	8G#/ 8d	"One-	.	.
=73	=73	=73	=73	=73
!	!	!	!	!LO:HP:b
4AAA/ 4AA	4Gn/ 4c# 4f#	-ste-	.	<
4AAA/ 4AA	4G/ 4A 4c# 4f#	-pa"	.	[[
!!LO:LB:g=original	!	!	!	!
=74	=74	=74	=74	=74
*>A1	*>A1	*>A1	*>A1	*>A1
8DD/ 8D	8F#/ 8A 8d	czar!..	.	.
8r	8r	.	.	.
!	!	!	!	!LO:DY:b
8AAA^/ 8AA	8A^/ 8c# 8e 8a	.	.	fz
8r	8r	.	.	.
=75	=75	=75	=75	=75
!	!	!	!	!LO:DY:b
8DDD/ 8DD	8d^/ 8f# 8a 8dd	.	.	fz
8r	8r	.	.	.
4r	4r	.	.	.
!LO:TX:b:rj:t=[segno]	!LO:TX:a:rj:t=[segno]	!	!	!
=76:|!	=76:|!	=76:|!	=76:|!	=76:|!
*>A2	*>A2	*>A2	*>A2	*>A2
8DD/L 8D	8F#/L 8A 8d	.	.	.
16r	16r	.	.	.
!	!	!	!	!LO:HP:b
32A/LL	32a/LL	.	.	<
32A/JJJ	32a/JJJ	.	.	.
*Xtremolo	*	*	*	*
8A\L	8a/L	.	.	.
!	!LO:TX:b:i:t=molto	!	!	!
8A\J	8a/J	.	.	.
=77	=77	=77	=77	=77
8A\L	8a\L	.	.	.
8AA^^\ 8A	8a^^\ 8aa	.	.	.
8AA^^\ 8A	8a^^\ 8aa	.	.	[
8AA^^\J 8A	8a^^\J 8aa	.	.	.
=78!|:	=78!|:	=78!|:	=78!|:	=78!|:
*>B	*>B	*>B	*>B	*>B
!	!	!	!	!
!	!LO:TX:a:B:t=Taniec.	!	!	!LO:DY:b
8DD/L 8D	8r	.	.	ff
8F#/J 8A	8ff#\L 8fff#	.	.	.
8AA\L	8ff#\ 8fff#	.	.	.
8F#\J 8A	8ee\J 8eee	.	.	.
=79	=79	=79	=79	=79
8DD/L 8D	8eeeM\L	.	.	.
8F#/J 8A	8dd\J 8ddd	.	.	.
8AA\L	4dd^^\ 4ddd	.	.	.
8F#\J 8A	.	.	.	.
=80	=80	=80	=80	=80
8DD/L 8D	8r	.	.	.
8F#/J 8A	8dd\L 8ddd	.	.	.
8AA\L	8dd\ 8ddd	.	.	.
8F#\J 8A	8a#X\J 8aa#X	.	.	.
!!LO:LB:g=original	!	!	!	!
=81	=81	=81	=81	=81
8GG\L 8G	8cc#\L 8ccc#	.	.	.
8B\J 8e	8b\J 8bb	.	.	.
8G\L	4b\ 4bb	.	.	.
8B\J 8e	.	.	.	.
=82	=82	=82	=82	=82
!	!	!	!	!LO:DY:b
8G#X\L	8b\L 8dd 8ee	.	.	p
!	!LO:TX:b:i:t=sub.	!	!	!
8B\J 8d 8e	8b\J 8dd 8ff#	.	.	.
8E\L	4b\ 4dd 4ee	.	.	.
8B\J 8d 8e	.	.	.	.
=83	=83	=83	=83	=83
!	!	!	!	!LO:HP:b
8EE\L 8E	8dd\L 8ee 8bb	.	.	<
8G#X\J 8d	8dd\J 8ee 8ccc#	.	.	.
8E\L	4dd^^\ 4ee 4bb	.	.	[[
8G#\J 8d	.	.	.	.
=84	=84	=84	=84	=84
!	!	!	!	!LO:DY:b
!	!	!	!	!LO:HP:b
.	16qqaa/LL	.	.	f <
.	16qqbb/	.	.	.
.	16qqccc#/	.	.	.
.	16qqddd/JJ	.	.	.
8E^^\L 8e	8ee^^\L 8eee	.	.	.
8F#^^\ 8f#	8ff#^^\ 8fff#	.	.	.
8E^^\ 8e	8ee^^\ 8eee	.	.	.
8C#^^\J 8c#	8cc#^^\J 8ccc#	.	.	.
=85	=85	=85	=85	=85
8BB^^\L 8B	8b^^\L 8bb	.	.	.
8BB-X^^\J 8B-X	8b-X^^\J 8bb-X	.	.	.
4AA^^\ 4A	4a^^\ 4aa	.	.	[
=86	=86	=86	=86	=86
!	!	!	!	!LO:DY:b
8DD/L 8D	8r	.	.	ff
8F#/J 8A	8ff#\L 8fff#	.	.	.
8AA\L	8ff#\ 8fff#	.	.	.
8F#\J 8A	8ee\J 8eee	.	.	.
=87	=87	=87	=87	=87
8DD\L 8D	8ee\L 8ff# 8aa 8ccc# 8eee	.	.	.
8F#\J 8A	8dd\J 8ddd	.	.	.
8AA\L	4dd^^\ 4ff# 4aa 4ddd	.	.	.
8F#\J 8A	.	.	.	.
!!LO:LB:g=original	!	!	!	!
=88	=88	=88	=88	=88
8BBB-X\L 8BB-X	8r	.	.	.
8B-X\J 8d	8dd\L 8ddd	.	.	.
8Fn\L	8dd\ 8ddd	.	.	.
8B-\J 8d	8ccn\J 8cccn	.	.	.
=89	=89	=89	=89	=89
8BBB-X\L 8BB-X	8ccn\L 8dd 8ffn 8cccn	.	.	.
8B-X\J 8d	8b-X\J 8bb-X	.	.	.
8Fn\L	4b-^^\ 4dd 4ff 4bb-	.	.	.
8B-\J 8d	.	.	.	.
=90	=90	=90	=90	=90
!	!	!	!	!LO:DY:b
!	!	!	!	!LO:HP:b
.	16qqb-X/LL	.	.	p <
.	16qqccn/	.	.	.
.	16qqdd/JJ	.	.	.
8EE-X\L 8E-X	8e-X\L 8ee-X	.	.	.
8FFn\ 8Fn	8fn\ 8ffn	.	.	.
8GG\ 8G	8g\ 8gg	.	.	.
8BB-X\J 8B-X	8b-\J 8bb-X	.	.	.
=91	=91	=91	=91	=91
!	!LO:TX:b:i:t=molto	!	!	!
8AAA^^\L 8AA	8a^^\L 8dd 8ff#X 8aa	.	.	.
8D\ 8d	8dd\ 8ddd	.	.	.
8En\ 8en	8een\ 8eeen	.	.	.
8F#X\J 8f#X	8ff#\J 8fff#	.	.	[[
=92	=92	=92	=92	=92
8BBBn/ 8BBn	8r	.	.	.
!	!	!	!	!LO:DY:b
4E^^\ 4G#X 4d	4ff#^^\ 4gg#X 4ddd 4fff#	.	.	fz
8AAA/ 8AA	8ee\ 8ggn 8aa 8ccc# 8eee	.	.	.
=93	=93	=93	=93	=93
8DD\L 8D	8dd\L 8ff# 8aa 8ddd	.	.	.
!	!	!	!	!LO:DY:b
8AA^^\ 8A	8a^^\ 8aa	.	.	fz
8D^^\J 8d	8dd^^\J 8ddd	.	.	.
8r	8r	.	.	.
=:|!	=:|!	=:|!	=:|!	=:|!
*-	*-	*-	*-	*-
!!!system-decoration: {(s1,s2)}
!!!RDF**kern: > = above
!!!RDF**kern: < = below
!!!ENC: Berenika Jozajtis
!!!END: 2023-09-07
!!!ENC: Jan Barakat
!!!END: 2023-09-19
